Faba/24x24/actions/document-send.svg

<?xml version="1.0" encoding="UTF-8" standalone="no"?>
<!-- Created with Inkscape (http://www.inkscape.org/) -->

<svg
   xmlns:dc="http://purl.org/dc/elements/1.1/"
   xmlns:cc="http://creativecommons.org/ns#"
   xmlns:rdf="http://www.w3.org/1999/02/22-rdf-syntax-ns#"
   xmlns:svg="http://www.w3.org/2000/svg"
   xmlns="http://www.w3.org/2000/svg"
   xmlns:sodipodi="http://sodipodi.sourceforge.net/DTD/sodipodi-0.dtd"
   xmlns:inkscape="http://www.inkscape.org/namespaces/inkscape"
   width="24"
   height="24"
   id="svg3495"
   version="1.1"
   inkscape:version="0.48.4 r9939"
   sodipodi:docname="view-restore.svg">
  <defs
     id="defs3497">
    <clipPath
       clipPathUnits="userSpaceOnUse"
       id="clipPath3669">
      <path
         inkscape:connector-curvature="0"
         d="M 0,96 96,96 96,0 0,0 0,96 z"
         id="path3671" />
    </clipPath>
  </defs>
  <sodipodi:namedview
     id="base"
     pagecolor="#ffffff"
     bordercolor="#666666"
     borderopacity="1.0"
     inkscape:pageopacity="0.0"
     inkscape:pageshadow="2"
     inkscape:zoom="1"
     inkscape:cx="17.032741"
     inkscape:cy="9.3432566"
     inkscape:current-layer="layer1"
     showgrid="false"
     inkscape:grid-bbox="true"
     inkscape:document-units="px"
     inkscape:window-width="1364"
     inkscape:window-height="701"
     inkscape:window-x="0"
     inkscape:window-y="27"
     inkscape:window-maximized="1"
     inkscape:snap-bbox="true"
     inkscape:bbox-paths="true"
     inkscape:bbox-nodes="true"
     inkscape:snap-bbox-edge-midpoints="false"
     showguides="true"
     inkscape:guide-bbox="true">
    <inkscape:grid
       type="xygrid"
       id="grid3512"
       empspacing="4"
       visible="true"
       enabled="true"
       snapvisiblegridlinesonly="true"
       dotted="false" />
  </sodipodi:namedview>
  <metadata
     id="metadata3500">
    <rdf:RDF>
      <cc:Work
         rdf:about="">
        <dc:format>image/svg+xml</dc:format>
        <dc:type
           rdf:resource="http://purl.org/dc/dcmitype/StillImage" />
        <dc:title></dc:title>
      </cc:Work>
    </rdf:RDF>
  </metadata>
  <g
     id="layer1"
     inkscape:label="Layer 1"
     inkscape:groupmode="layer"
     transform="translate(1,-25)">
    <path
       style="fill:#555555;fill-opacity:1;stroke:none;display:inline;enable-background:new"
       d="m 22,29.888672 -22,4.597656 4.125,3.222656 0,6.402344 4.8125,-2.75 0,0 -1.375,-1.503906 5.542969,3.996094 z M 20.023437,31.220703 7.863281,38.955078 6.660156,40.759766 5.5,41.490234 l 0,-3.222656 z"
       id="path6400"
       inkscape:connector-curvature="0"
       sodipodi:nodetypes="ccccccccccccccc" />
    <path
       sodipodi:nodetypes="ccccccccccccccc"
       inkscape:connector-curvature="0"
       id="path3943"
       d="M 22,28.888344 0,33.486 l 4.125,3.222656 0,6.402344 4.8125,-2.75 0,0 -1.375,-1.503906 5.542969,3.996094 z M 20.023437,30.220375 7.863281,37.95475 6.660156,39.759438 5.5,40.489906 5.5,37.26725 z"
       style="opacity:0.1;fill:#ffffff;fill-opacity:1;stroke:none;display:inline;enable-background:new" />
  </g>
</svg>

<svg xmlns="http://www.w3.org/2000/svg" viewBox="0 0 24 24"><defs><clipPath><path d="m0 96h96v-96h-96v96"/></clipPath></defs><g transform="translate(1-25)"><path d="m22 29.889l-22 4.598 4.125 3.223v6.402l4.813-2.75-1.375-1.504 5.543 3.996zm-1.977 1.332l-12.16 7.734-1.203 1.805-1.16.73v-3.223z" fill="#555"/><path d="m22 28.888l-22 4.598 4.125 3.223v6.402l4.813-2.75-1.375-1.504 5.543 3.996zm-1.977 1.332l-12.16 7.734-1.203 1.805-1.16.73v-3.223z" opacity=".1" fill="#fff"/></g></svg>
